src/icons/file-code.svg

<svg width="16" height="16" xmlns="http://www.w3.org/2000/svg"><path fill-rule="evenodd" clip-rule="evenodd" d="M10.57 1.14l3.28 3.3.15.36v9.7l-.5.5h-11l-.5-.5v-13l.5-.5h7.72l.35.14zM10 5h3l-3-3v3zM3 2v12h10V6H9.5L9 5.5V2H3zm2.062 7.533l1.817-1.828L6.17 7 4 9.179v.707l2.171 2.174.707-.707-1.816-1.82zM8.8 7.714l.7-.709 2.189 2.175v.709L9.5 12.062l-.705-.709 1.831-1.82L8.8 7.714z"/></svg>

<svg width="16" height="16" viewBox="0 0 16 16" fill="none" xmlns="http://www.w3.org/2000/svg">
<path fill-rule="evenodd" clip-rule="evenodd" d="M10.57 1.14L13.85 4.44L14 4.8V14.5L13.5 15H2.5L2 14.5V1.5L2.5 1H10.22L10.57 1.14ZM10 5H13L10 2V5ZM3 2V14H13V6H9.5L9 5.5V2H3ZM5.062 9.533L6.879 7.705L6.17 7L4 9.179V9.886L6.171 12.06L6.878 11.353L5.062 9.533ZM8.8 7.714L9.5 7.005L11.689 9.18V9.889L9.5 12.062L8.795 11.353L10.626 9.533L8.8 7.714Z" fill="white"/>
</svg>
